build/images/common/1.svg

<svg width="72" height="71" viewBox="0 0 72 71" fill="none" xmlns="http://www.w3.org/2000/svg">
<path fill-rule="evenodd" clip-rule="evenodd" d="M30.8889 21.2001C30.9889 21.6001 30.7889 22 30.5889 22.5C29.8889 22.5 29.3889 21.7 28.5889 21.5C25.9889 20.6 22.1889 20.6 19.1889 20.8C18.8889 19.7 20.4889 19.5 21.2889 19.4C24.3889 19.2 28.5889 20.2001 30.8889 21.2001Z" fill="#232178"/>
<path fill-rule="evenodd" clip-rule="evenodd" d="M31.1889 26.3C31.0889 26.8 30.9889 27.2 30.8889 27.6C30.2889 27.6 30.0889 27.1 29.5889 26.8C27.5889 25.8 24.3889 25.4001 21.8889 25.0001C20.9889 24.9001 19.8889 24.6001 18.3889 24.7001C17.7889 24.7001 17.0889 24.9 16.9889 24.4C16.8889 23.7 18.0889 23.6 18.8889 23.6C23.3889 23.5 27.8889 24.9 31.1889 26.3Z" fill="#232178"/>
<path fill-rule="evenodd" clip-rule="evenodd" d="M31.5889 32.6001C31.6889 33.0001 31.2889 33.3001 31.2889 33.8001C30.4889 33.7001 29.8889 33.1001 29.0889 32.8001C26.7889 32.0001 23.7889 31.6001 21.2889 31.1001C20.9889 31.1001 20.9889 31.3001 20.6889 31.2001C19.9889 30.9001 18.5889 30.9001 17.3889 30.9001C16.8889 30.9001 15.7889 31.2001 15.7889 30.4001C15.7889 29.8001 16.1889 29.8001 16.6889 29.8001C21.1889 29.6001 28.2889 30.9001 31.5889 32.6001Z" fill="#232178"/>
<path fill-rule="evenodd" clip-rule="evenodd" d="M33.7889 37.7998C33.5889 37.9998 33.6889 38.6998 33.4889 38.8998C29.8889 37.5998 24.7889 35.6998 20.1889 35.5998C19.2889 35.5998 18.0889 36.2998 17.4889 35.3998C17.8889 34.3998 19.3889 34.4999 20.3889 34.4999C24.9889 34.7999 29.8889 36.5998 33.7889 37.7998Z" fill="#232178"/>
<path fill-rule="evenodd" clip-rule="evenodd" d="M59.2889 36.9999C59.4889 37.3999 59.0889 37.6999 58.9889 38.1999C52.6889 37.6999 46.3889 38.9999 41.5889 40.1999C40.9889 39.2999 42.0889 38.9999 42.4889 38.7999C42.5889 38.7999 42.6889 38.6999 42.7889 38.6999C47.2889 37.6999 53.4889 36.6999 59.2889 36.9999Z" fill="#232178"/>
<path fill-rule="evenodd" clip-rule="evenodd" d="M33.3889 43.8999C33.2889 44.2999 33.2889 44.7999 33.0889 45.0999C32.4889 45.2999 32.2889 44.6999 31.8889 44.3999C30.5889 43.4999 28.6889 42.7999 26.9889 42.2999C23.9889 41.3999 20.4889 40.7999 17.0889 40.7999C16.5889 39.2999 18.9889 39.6999 20.0889 39.7999C24.6889 40.1999 30.0889 41.9999 33.3889 43.8999Z" fill="#232178"/>
<path fill-rule="evenodd" clip-rule="evenodd" d="M59.7889 10C60.3889 10.4 60.4889 11 60.3889 12C61.3889 11.6 63.6889 12 64.6889 12.7C64.6889 13.1 64.4889 13.2 64.3889 13.5C62.9889 13.1 62.0889 13.5 60.5889 13.1C60.5889 15.5 60.2889 18.5 60.3889 21.4C60.4889 23.2 60.7889 25 60.7889 26.7C60.7889 28.3 60.6889 30 60.0889 31.3C57.9889 30.4 57.7889 27.6 56.2889 26.2C55.1889 27.4 54.6889 29.2 54.2889 31.2C55.3889 31.6 56.9889 31.5 58.1889 31.7C58.3889 32.1 57.9889 32.5 57.8889 32.8C55.6889 32.5 52.2889 32.2 49.4889 32.5C48.9889 32.6 48.4889 32.8 47.9889 32.9C47.4889 33 46.8889 33 46.4889 33.1C44.7889 33.5 43.3889 34.3 41.6889 34.5C41.5889 34.2 41.2889 34.1 41.3889 33.6C44.2889 32.4 47.4889 31.5 51.2889 31.2C51.1889 30.1 51.1889 27.9 51.1889 26.2C48.8889 26 46.7889 26.8 44.9889 27.3C44.1889 27.6 42.9889 28.7 41.9889 28.2C41.9889 27.6 42.9889 27 43.4889 26.8C45.5889 25.8 48.3889 25.4 50.9889 24.9C51.2889 24.6 50.6889 24.6 50.7889 24.1C50.8889 23.5 51.2889 23.3 51.2889 22.8C51.2889 22.1 50.3889 21.6 50.3889 21C47.8889 21.1 45.1889 22 43.0889 22.8C42.3889 23.1 41.6889 23.7 41.0889 23.3C40.9889 22.6 41.8889 22.1 42.4889 21.9C43.6889 21.4 45.6889 20.8 47.3889 20.4C48.8889 20.1 50.3889 19.6 51.4889 20C52.1889 19.1 52.1889 16.9 51.8889 15.7C52.2889 15 52.1889 14.5 52.1889 13.5C47.1889 13.8 43.3889 15.6 39.9889 17.8C39.7889 18.8 39.8889 19.7 39.8889 20.9C39.8889 22.4 39.5889 24 39.5889 25.6C39.5889 27.1 39.7889 28.7 39.0889 29.9C38.8889 32.7 38.7889 35.9 38.2889 37.7C38.2889 41.9 38.0889 46.5 37.9889 51.1C38.5889 51 39.0889 50.5 39.4889 50.2C39.9889 49.8 40.5889 49.5 41.0889 49.2C43.1889 47.9 45.0889 46.4 48.1889 45.7C52.7889 44.7 58.3889 44.3 63.6889 45.2C63.8889 45.5 63.3889 45.9 63.4889 46.5C64.6889 45.3 64.6889 43.4 64.5889 40.9C64.4889 38.4 64.5889 35.5 64.4889 32.9C64.3889 28.6 64.7889 23.9 64.7889 19.9C64.7889 18.6 64.7889 17.3 64.7889 16.1C64.7889 15.4 64.4889 14.6 64.6889 14C66.2889 14.2 65.2889 17.2 65.8889 18.4C66.3889 18.9 67.3889 18.8 67.9889 19.2C67.8889 23.2 67.9889 27.7 67.7889 32C67.6889 34.3 67.4889 36.5 67.4889 38.7C67.4889 42.9 67.0889 47.7 66.3889 52.2C66.0889 53.8 66.2889 55.3 65.2889 56C64.5889 55.5 63.7889 55.8 62.8889 55.8C62.0889 55.8 61.0889 55.4 60.2889 55.4C60.0889 55.4 59.8889 55.5 59.6889 55.5C59.2889 55.4 58.9889 55.2 58.6889 55.1C55.2889 54.3 51.3889 55.3 47.9889 56C44.4889 56.7 41.0889 57.8 39.0889 59.5C37.3889 59.2 36.0889 60.4 34.1889 60.6C33.1889 60.7 32.3889 60.4 31.2889 60.4C31.1889 59.8 30.5889 59.8 30.3889 59.3C29.8889 59.1 29.3889 58.9 29.0889 58.4C28.6889 58.4 28.6889 58.2 28.2889 58.2C25.3889 56.1 21.1889 54.4 16.5889 53.9C14.4889 53.6 11.6889 53.8 9.58889 53.7C8.38889 53.9 7.18894 54.2 6.38894 54.9C5.78894 54.8 5.3889 54.1 4.7889 54.3C4.3889 47.9 4.18889 41.3 4.08889 34.3C4.08889 32 3.88889 29.4 4.08889 27.1C4.18889 25.7 4.58893 24.1 5.18893 22.9C6.48893 22.3 8.08894 22 9.38894 21.4C9.48894 21 9.08893 21 9.18893 20.5C10.0889 18.3 11.1889 16.4 12.8889 15C14.6889 14.4 16.1889 13.5 18.5889 13.3C24.9889 12.8 32.6889 14.5 36.9889 17.1C37.2889 17.3 37.2889 17.8 37.7889 18C39.8889 16.8 41.7889 15.4 44.1889 14.4C46.4889 13.4 49.0889 12.7 52.1889 12.4C52.4889 11.8 52.0889 11 52.4889 10.6C52.7889 9.99998 53.4889 10.3 54.1889 10.3C55.8889 10.3 57.9889 10 59.7889 10ZM35.5889 37.2C35.7889 33.1 36.1889 28.9 36.4889 25.1C36.6889 23.2 36.5889 21.3 37.0889 19.7C36.7889 19.4 36.9889 18.7 36.7889 18.2C36.4889 17.6 34.2889 16.5 33.1889 16.1C30.9889 15.3 27.8889 14.5 25.2889 14.2C24.1889 14.1 22.4889 14 21.4889 14.1C18.9889 14.4 15.6889 14.6 14.3889 16C13.9889 16.1 14.2889 15.4 13.8889 15.5C13.1889 17 13.5889 18.9 13.4889 20.8C13.4889 21.3 13.2889 21.8 13.1889 22.3C13.1889 23.8 13.4889 25.5 13.0889 26.9C13.1889 31.7 12.5889 37.2 12.0889 42.2C11.9889 43.5 11.8889 45.3 11.9889 46.5C12.8889 46.8 13.7889 46.3 14.7889 46.2C22.7889 46 29.3889 48.1 34.3889 51C35.0889 46.8 35.2889 42.1 35.5889 37.2ZM59.3889 16C59.2889 15.7 59.4889 15.2 59.2889 15C59.1889 15.2 58.7889 16 59.3889 16ZM10.8889 45.5C11.7889 35.8 12.3889 27.2 12.4889 16.6C12.3889 16.6 12.3889 16.5 12.1889 16.5C11.4889 17.3 10.2889 18.1 10.0889 19.3C9.98889 19.7 10.0889 20.4 10.0889 21C10.0889 23.2 10.0889 24.8 9.7889 26.5C9.5889 27.8 9.58891 29.3 9.48891 30.7C8.98891 36.9 8.78889 42.4 9.08889 48.3C9.68889 48.2 9.88891 47.6 10.4889 47.4C10.1889 48.7 9.28891 49.3 8.98891 50.5C8.88891 50.8 8.38894 50.5 8.38894 50.8C8.68894 50.9 8.28894 51.1 8.38894 51.3C8.68894 51.6 8.8889 51.2 9.2889 51.2C9.3889 50.4 9.88889 49.8 10.5889 49.5C18.6889 48.7 26.1889 51.4 31.5889 54.5C32.3889 55.2 33.4889 56.1 34.5889 56.3C33.9889 56.2 33.8889 55.6 33.9889 54.9C30.7889 53.6 28.2889 51.7 25.0889 50.4C24.7889 50.1 25.3889 49.8 25.0889 49.5C20.5889 49.1 16.2889 48.2 12.1889 47.8C11.7889 47.7 11.7889 47.3 11.3889 47.3C11.0889 47.4 10.7889 47.4 10.4889 47.2C10.5889 46.8 10.5889 46 10.8889 45.5ZM59.0889 18.2C59.2889 18.2 59.3889 18.1 59.3889 17.9C59.0889 17.9 59.0889 18 59.0889 18.2ZM65.7889 20.2C66.1889 20 66.4889 20.2 66.9889 20.2C67.1889 19.6 66.4889 19.5 65.7889 19.5C65.7889 19.8 65.6889 19.9 65.7889 20.2ZM53.9889 24C54.4889 23.5 54.8889 22.9 55.0889 22C55.0889 21.9 54.9889 21.9 54.8889 21.9C54.4889 22.4 54.3889 23.3 53.9889 24ZM9.18893 23.9C9.18893 23.4 9.38893 22.7 9.18893 22.2C8.48893 22.3 8.18893 23.8 9.18893 23.9ZM58.2889 24.6C58.3889 24.9 58.3889 25.2 58.5889 25.4C58.6889 25 59.1889 24.4 58.8889 24.2C58.7889 24.4 58.5889 24.6 58.2889 24.6ZM57.7889 25.9C57.6889 25.2 57.2889 24.8 56.9889 24.3C57.0889 25 57.4889 25.4 57.7889 25.9ZM53.4889 28C53.8889 27.4 54.4889 26.2 54.1889 25.4C53.6889 26.1 53.0889 26.7 53.4889 28ZM38.2889 27.2C38.5889 27.1 38.5889 26.2 38.3889 26C38.1889 26.3 38.2889 26.8 38.2889 27.2ZM52.2889 29.5C52.9889 29.4 52.6889 28 52.2889 27.7C52.0889 28.2 52.1889 29 52.2889 29.5ZM52.4889 31.1C52.7889 31.1 53.0889 31.1 53.3889 31.1C53.4889 30.2 52.4889 30.6 52.4889 31.1ZM5.48891 42.6C5.48891 40.2 5.68894 38 5.38894 35.2C5.18894 37.5 5.08891 40.2 5.48891 42.6ZM37.2889 43.9C37.6889 43.4 37.4889 42.4 37.4889 41.5C37.4889 40.9 37.5889 40.4 37.3889 39.9C37.0889 41.5 37.3889 42.9 37.2889 43.9ZM7.08889 41.6C7.28889 41.4 7.08891 40.5 6.98891 40.6C7.08891 41 6.68889 41.4 7.08889 41.6ZM5.38894 44.2C5.88894 44.2 5.58894 43 5.38894 42.8C5.48894 43.5 5.28894 43.7 5.38894 44.2ZM37.3889 45.9C37.4889 45.8 37.5889 45.3 37.2889 45.4C37.3889 45.6 37.1889 45.9 37.3889 45.9ZM59.5889 45.6C57.8889 45.6 56.1889 45.6 54.6889 45.6C52.3889 45.6 50.3889 46.3 48.3889 46.7C47.6889 46.8 47.0889 46.8 46.3889 47C45.5889 47.3 44.7889 47.8 43.9889 48.3C42.2889 49.2 41.0889 50.1 39.6889 50.9C39.4889 51.3 39.2889 51.6 39.0889 52C38.5889 51.8 38.3889 52.1 37.7889 52.1C37.3889 53.1 37.2889 54 37.0889 55C36.7889 55 36.4889 55 36.1889 55.1C36.2889 55.9 35.5889 55.8 35.5889 56.5C36.3889 56.5 37.4889 56.1 37.9889 55.5C37.9889 55.3 37.3889 55.1 37.2889 54.6C38.8889 53 41.0889 51.5 43.2889 50.3C43.8889 50 44.5889 49.5 45.2889 49.2C45.5889 49.1 45.9889 49.1 46.2889 48.9C47.2889 48.5 48.1889 47.8 49.2889 47.5C52.2889 46.7 55.3889 46.8 58.6889 47.4C59.7889 47.6 61.3889 48.1 60.0889 48.9C58.2889 48.4 56.9889 48 55.0889 47.8C50.2889 47.3 46.8889 49.6 43.8889 51.1C41.7889 52.2 39.6889 53.3 38.5889 54.8C41.5889 52.9 45.4889 51.1 49.6889 50.3C53.4889 49.5 57.4889 48.9 61.4889 49.8C61.6889 48.5 62.8889 47.5 63.2889 46.2C62.2889 45.8 60.9889 45.6 59.5889 45.6ZM17.8889 47.7C20.2889 48.3 22.8889 48.4 25.4889 48.7C23.6889 47.6 19.8889 47.5 17.8889 47.7ZM35.3889 51.7C35.5889 51.9 35.8889 51.5 36.2889 51.5C36.3889 50.4 36.5889 48.6 35.8889 47.8C35.5889 49.1 35.4889 50.3 35.3889 51.7ZM26.9889 50.3C29.5889 51.6 31.7889 53.3 34.1889 54.8C34.3889 54 34.0889 53.5 34.2889 52.8C32.7889 50.9 29.8889 50.4 26.8889 50C26.8889 50.1 26.8889 50.2 26.9889 50.3ZM56.9889 50.6C57.1889 50.7 57.9889 50.8 58.0889 50.5C57.6889 50.6 57.2889 50.3 56.9889 50.6ZM11.4889 50.6C11.4889 51 12.1889 50.9 12.0889 50.5C11.7889 50.5 11.6889 50.6 11.4889 50.6ZM55.5889 50.6C55.5889 50.9 56.4889 50.7 56.4889 50.5C56.1889 50.7 55.8889 50.5 55.5889 50.6ZM16.2889 51.1C16.8889 51 17.3889 51.6 17.5889 50.9C17.1889 50.9 16.3889 50.4 16.2889 51.1ZM51.9889 53.4C52.0889 53.5 52.6889 53.4 52.8889 53.3C52.9889 52.6 52.0889 53.1 51.9889 53.4ZM59.5889 53.7C59.7889 53.8 60.0889 53.9 60.4889 53.9C60.3889 53.4 59.7889 53.4 59.5889 53.7ZM34.6889 59C34.7889 59.1 35.1889 59.1 35.0889 58.7C34.8889 58.8 34.7889 58.8 34.6889 59Z" fill="#232178"/>
</svg>

<svg width="72" height="71" fill="none" xmlns="http://www.w3.org/2000/svg"><path fill-rule="evenodd" clip-rule="evenodd" d="M30.889 21.2c.1.4-.1.8-.3 1.3-.7 0-1.2-.8-2-1-2.6-.9-6.4-.9-9.4-.7-.3-1.1 1.3-1.3 2.1-1.4 3.1-.2 7.3.8 9.6 1.8zm.3 5.1c-.1.5-.2.9-.3 1.3-.6 0-.8-.5-1.3-.8-2-1-5.2-1.4-7.7-1.8-.9-.1-2-.4-3.5-.3-.6 0-1.3.2-1.4-.3-.1-.7 1.1-.8 1.9-.8 4.5-.1 9 1.3 12.3 2.7zm.4 6.3c.1.4-.3.7-.3 1.2-.8-.1-1.4-.7-2.2-1-2.3-.8-5.3-1.2-7.8-1.7-.3 0-.3.2-.6.1-.7-.3-2.1-.3-3.3-.3-.5 0-1.6.3-1.6-.5 0-.6.4-.6.9-.6 4.5-.2 11.6 1.1 14.9 2.8zm2.2 5.2c-.2.2-.1.9-.3 1.1-3.6-1.3-8.7-3.2-13.3-3.3-.9 0-2.1.7-2.7-.2.4-1 1.9-.9 2.9-.9 4.6.3 9.5 2.1 13.4 3.3zm25.5-.8c.2.4-.2.7-.3 1.2-6.3-.5-12.6.8-17.4 2-.6-.9.5-1.2.9-1.4.1 0 .2-.1.3-.1 4.5-1 10.7-2 16.5-1.7zm-25.9 6.9c-.1.4-.1.9-.3 1.2-.6.2-.8-.4-1.2-.7-1.3-.9-3.2-1.6-4.9-2.1-3-.9-6.5-1.5-9.9-1.5-.5-1.5 1.9-1.1 3-1 4.6.4 10 2.2 13.3 4.1z" fill="#232178"/><path fill-rule="evenodd" clip-rule="evenodd" d="M59.789 10c.6.4.7 1 .6 2 1-.4 3.3 0 4.3.7 0 .4-.2.5-.3.8-1.4-.4-2.3 0-3.8-.4 0 2.4-.3 5.4-.2 8.3.1 1.8.4 3.6.4 5.3 0 1.6-.1 3.3-.7 4.6-2.1-.9-2.3-3.7-3.8-5.1-1.1 1.2-1.6 3-2 5 1.1.4 2.7.3 3.9.5.2.4-.2.8-.3 1.1-2.2-.3-5.6-.6-8.4-.3-.5.1-1 .3-1.5.4-.5.1-1.1.1-1.5.2-1.7.4-3.1 1.2-4.8 1.4-.1-.3-.4-.4-.3-.9 2.9-1.2 6.1-2.1 9.9-2.4-.1-1.1-.1-3.3-.1-5-2.3-.2-4.4.6-6.2 1.1-.8.3-2 1.4-3 .9 0-.6 1-1.2 1.5-1.4 2.1-1 4.9-1.4 7.5-1.9.3-.3-.3-.3-.2-.8.1-.6.5-.8.5-1.3 0-.7-.9-1.2-.9-1.8-2.5.1-5.2 1-7.3 1.8-.7.3-1.4.9-2 .5-.1-.7.8-1.2 1.4-1.4 1.2-.5 3.2-1.1 4.9-1.5 1.5-.3 3-.8 4.1-.4.7-.9.7-3.1.4-4.3.4-.7.3-1.2.3-2.2-5 .3-8.8 2.1-12.2 4.3-.2 1-.1 1.9-.1 3.1 0 1.5-.3 3.1-.3 4.7 0 1.5.2 3.1-.5 4.3-.2 2.8-.3 6-.8 7.8 0 4.2-.2 8.8-.3 13.4.6-.1 1.1-.6 1.5-.9.5-.4 1.1-.7 1.6-1 2.1-1.3 4-2.8 7.1-3.5 4.6-1 10.2-1.4 15.5-.5.2.3-.3.7-.2 1.3 1.2-1.2 1.2-3.1 1.1-5.6-.1-2.5 0-5.4-.1-8-.1-4.3.3-9 .3-13v-3.8c0-.7-.3-1.5-.1-2.1 1.6.2.6 3.2 1.2 4.4.5.5 1.5.4 2.1.8-.1 4 0 8.5-.2 12.8-.1 2.3-.3 4.5-.3 6.7 0 4.2-.4 9-1.1 13.5-.3 1.6-.1 3.1-1.1 3.8-.7-.5-1.5-.2-2.4-.2-.8 0-1.8-.4-2.6-.4-.2 0-.4.1-.6.1-.4-.1-.7-.3-1-.4-3.4-.8-7.3.2-10.7.9-3.5.7-6.9 1.8-8.9 3.5-1.7-.3-3 .9-4.9 1.1-1 .1-1.8-.2-2.9-.2-.1-.6-.7-.6-.9-1.1-.5-.2-1-.4-1.3-.9-.4 0-.4-.2-.8-.2-2.9-2.1-7.1-3.8-11.7-4.3-2.1-.3-4.9-.1-7-.2-1.2.2-2.4.5-3.2 1.2-.6-.1-1-.8-1.6-.6-.4-6.4-.6-13-.7-20 0-2.3-.2-4.9 0-7.2.1-1.4.5-3 1.1-4.2 1.3-.6 2.9-.9 4.2-1.5.1-.4-.3-.4-.2-.9.9-2.2 2-4.1 3.7-5.5 1.8-.6 3.3-1.5 5.7-1.7 6.4-.5 14.1 1.2 18.4 3.8.3.2.3.7.8.9 2.1-1.2 4-2.6 6.4-3.6 2.3-1 4.9-1.7 8-2 .3-.6-.1-1.4.3-1.8.3-.6 1-.3 1.7-.3 1.7 0 3.8-.3 5.6-.3zm-24.2 27.2c.2-4.1.6-8.3.9-12.1.2-1.9.1-3.8.6-5.4-.3-.3-.1-1-.3-1.5-.3-.6-2.5-1.7-3.6-2.1-2.2-.8-5.3-1.6-7.9-1.9-1.1-.1-2.8-.2-3.8-.1-2.5.3-5.8.5-7.1 1.9-.4.1-.1-.6-.5-.5-.7 1.5-.3 3.4-.4 5.3 0 .5-.2 1-.3 1.5 0 1.5.3 3.2-.1 4.6.1 4.8-.5 10.3-1 15.3-.1 1.3-.2 3.1-.1 4.3.9.3 1.8-.2 2.8-.3 8-.2 14.6 1.9 19.6 4.8.7-4.2.9-8.9 1.2-13.8zm23.8-21.2c-.1-.3.1-.8-.1-1-.1.2-.5 1 .1 1zm-48.5 29.5c.9-9.7 1.5-18.3 1.6-28.9-.1 0-.1-.1-.3-.1-.7.8-1.9 1.6-2.1 2.8-.1.4 0 1.1 0 1.7 0 2.2 0 3.8-.3 5.5-.2 1.3-.2 2.8-.3 4.2-.5 6.2-.7 11.7-.4 17.6.6-.1.8-.7 1.4-.9-.3 1.3-1.2 1.9-1.5 3.1-.1.3-.6 0-.6.3.3.1-.1.3 0 .5.3.3.5-.1.9-.1.1-.8.6-1.4 1.3-1.7 8.1-.8 15.6 1.9 21 5 .8.7 1.9 1.6 3 1.8-.6-.1-.7-.7-.6-1.4-3.2-1.3-5.7-3.2-8.9-4.5-.3-.3.3-.6 0-.9-4.5-.4-8.8-1.3-12.9-1.7-.4-.1-.4-.5-.8-.5-.3.1-.6.1-.9-.1.1-.4.1-1.2.4-1.7zm48.2-27.3c.2 0 .3-.1.3-.3-.3 0-.3.1-.3.3zm6.7 2c.4-.2.7 0 1.2 0 .2-.6-.5-.7-1.2-.7 0 .3-.1.4 0 .7zm-11.8 3.8c.5-.5.9-1.1 1.1-2 0-.1-.1-.1-.2-.1-.4.5-.5 1.4-.9 2.1zm-44.8-.1c0-.5.2-1.2 0-1.7-.7.1-1 1.6 0 1.7zm49.1.7c.1.3.1.6.3.8.1-.4.6-1 .3-1.2-.1.2-.3.4-.6.4zm-.5 1.3c-.1-.7-.5-1.1-.8-1.6.1.7.5 1.1.8 1.6zm-4.3 2.1c.4-.6 1-1.8.7-2.6-.5.7-1.1 1.3-.7 2.6zm-15.2-.8c.3-.1.3-1 .1-1.2-.2.3-.1.8-.1 1.2zm14 2.3c.7-.1.4-1.5 0-1.8-.2.5-.1 1.3 0 1.8zm.2 1.6h.9c.1-.9-.9-.5-.9 0zm-47 11.5c0-2.4.2-4.6-.1-7.4-.2 2.3-.3 5 .1 7.4zm31.8 1.3c.4-.5.2-1.5.2-2.4 0-.6.1-1.1-.1-1.6-.3 1.6 0 3-.1 4zm-30.2-2.3c.2-.2 0-1.1-.1-1 .1.4-.3.8.1 1zm-1.7 2.6c.5 0 .2-1.2 0-1.4.1.7-.1.9 0 1.4zm32 1.7c.1-.1.2-.6-.1-.5.1.2-.1.5.1.5zm22.2-.3h-4.9c-2.3 0-4.3.7-6.3 1.1-.7.1-1.3.1-2 .3-.8.3-1.6.8-2.4 1.3-1.7.9-2.9 1.8-4.3 2.6-.2.4-.4.7-.6 1.1-.5-.2-.7.1-1.3.1-.4 1-.5 1.9-.7 2.9-.3 0-.6 0-.9.1.1.8-.6.7-.6 1.4.8 0 1.9-.4 2.4-1 0-.2-.6-.4-.7-.9 1.6-1.6 3.8-3.1 6-4.3.6-.3 1.3-.8 2-1.1.3-.1.7-.1 1-.3 1-.4 1.9-1.1 3-1.4 3-.8 6.1-.7 9.4-.1 1.1.2 2.7.7 1.4 1.5-1.8-.5-3.1-.9-5-1.1-4.8-.5-8.2 1.8-11.2 3.3-2.1 1.1-4.2 2.2-5.3 3.7 3-1.9 6.9-3.7 11.1-4.5 3.8-.8 7.8-1.4 11.8-.5.2-1.3 1.4-2.3 1.8-3.6-1-.4-2.3-.6-3.7-.6zm-41.7 2.1c2.4.6 5 .7 7.6 1-1.8-1.1-5.6-1.2-7.6-1zm17.5 4c.2.2.5-.2.9-.2.1-1.1.3-2.9-.4-3.7-.3 1.3-.4 2.5-.5 3.9zm-8.4-1.4c2.6 1.3 4.8 3 7.2 4.5.2-.8-.1-1.3.1-2-1.5-1.9-4.4-2.4-7.4-2.8 0 .1 0 .2.1.3zm30 .3c.2.1 1 .2 1.1-.1-.4.1-.8-.2-1.1.1zm-45.5 0c0 .4.7.3.6-.1-.3 0-.4.1-.6.1zm44.1 0c0 .3.9.1.9-.1-.3.2-.6 0-.9.1zm-39.3.5c.6-.1 1.1.5 1.3-.2-.4 0-1.2-.5-1.3.2zm35.7 2.3c.1.1.7 0 .9-.1.1-.7-.8-.2-.9.1zm7.6.3c.2.1.5.2.9.2-.1-.5-.7-.5-.9-.2zm-24.9 5.3c.1.1.5.1.4-.3-.2.1-.3.1-.4.3z" fill="#232178"/></svg>
